ix/money-change_outline.svg

<svg viewBox="0 0 24 24" fill="none" xmlns="http://www.w3.org/2000/svg" height="1em" width="1em">
  <path d="M17 20.75H12C11.59 20.75 11.25 20.41 11.25 20C11.25 19.59 11.59 19.25 12 19.25H17C19.86 19.25 21.25 17.86 21.25 15V9C21.25 6.14 19.86 4.75 17 4.75H7C4.14 4.75 2.75 6.14 2.75 9V11C2.75 11.41 2.41 11.75 2 11.75C1.59 11.75 1.25 11.41 1.25 11V9C1.25 5.35 3.35 3.25 7 3.25H17C20.65 3.25 22.75 5.35 22.75 9V15C22.75 18.65 20.65 20.75 17 20.75Z" fill="#292D32"/>
  <path d="M12 15.25C10.21 15.25 8.75 13.79 8.75 12C8.75 10.21 10.21 8.75 12 8.75C13.79 8.75 15.25 10.21 15.25 12C15.25 13.79 13.79 15.25 12 15.25ZM12 10.25C11.04 10.25 10.25 11.04 10.25 12C10.25 12.96 11.04 13.75 12 13.75C12.96 13.75 13.75 12.96 13.75 12C13.75 11.04 12.96 10.25 12 10.25Z" fill="#292D32"/>
  <path d="M18.5 15.25C18.09 15.25 17.75 14.91 17.75 14.5V9.5C17.75 9.09 18.09 8.75 18.5 8.75C18.91 8.75 19.25 9.09 19.25 9.5V14.5C19.25 14.91 18.91 15.25 18.5 15.25Z" fill="#292D32"/>
  <path d="M8.5 18.69C8.09 18.69 7.75 18.35 7.75 17.94V16.66C7.75 16.44 7.57003 16.25 7.34003 16.25H2C1.59 16.25 1.25 15.91 1.25 15.5C1.25 15.09 1.59 14.75 2 14.75H7.34003C8.39003 14.75 9.25 15.61 9.25 16.66V17.94C9.25 18.35 8.91 18.69 8.5 18.69Z" fill="#292D32"/>
  <path d="M3.21945 17.4697C3.02945 17.4697 2.83948 17.3997 2.68948 17.2497L1.46945 16.0298C1.17945 15.7398 1.17945 15.2597 1.46945 14.9697L2.68948 13.7497C2.97948 13.4597 3.45948 13.4597 3.74948 13.7497C4.03948 14.0397 4.03948 14.5197 3.74948 14.8097L3.05948 15.4997L3.74948 16.1897C4.03948 16.4797 4.03948 16.9597 3.74948 17.2497C3.59948 17.3997 3.40945 17.4697 3.21945 17.4697Z" fill="#292D32"/>
  <path d="M8.5 21.5298H3.15997C2.10997 21.5298 1.25 20.6698 1.25 19.6198V18.3398C1.25 17.9298 1.59 17.5898 2 17.5898C2.41 17.5898 2.75 17.9298 2.75 18.3398V19.6198C2.75 19.8398 2.92997 20.0298 3.15997 20.0298H8.5C8.91 20.0298 9.25 20.3698 9.25 20.7798C9.25 21.1898 8.91 21.5298 8.5 21.5298Z" fill="#292D32"/>
  <path d="M7.27878 22.75C7.08878 22.75 6.89875 22.68 6.74875 22.53C6.45875 22.24 6.45875 21.7599 6.74875 21.4699L7.43875 20.78L6.74875 20.09C6.45875 19.8 6.45875 19.32 6.74875 19.03C7.03875 18.74 7.51875 18.74 7.80875 19.03L9.02878 20.25C9.31878 20.54 9.31878 21.02 9.02878 21.31L7.80875 22.53C7.66875 22.68 7.46878 22.75 7.27878 22.75Z" fill="#292D32"/>
</svg>

<svg viewBox="0 0 24 24" fill="none" xmlns="http://www.w3.org/2000/svg" height="1em" width="1em">
  <path d="M17 20.75h-5c-.41 0-.75-.34-.75-.75s.34-.75.75-.75h5c2.86 0 4.25-1.39 4.25-4.25V9c0-2.86-1.39-4.25-4.25-4.25H7C4.14 4.75 2.75 6.14 2.75 9v2c0 .41-.34.75-.75.75s-.75-.34-.75-.75V9c0-3.65 2.1-5.75 5.75-5.75h10c3.65 0 5.75 2.1 5.75 5.75v6c0 3.65-2.1 5.75-5.75 5.75Z" fill="#292D32"/>
  <path d="M12 15.25c-1.79 0-3.25-1.46-3.25-3.25S10.21 8.75 12 8.75s3.25 1.46 3.25 3.25-1.46 3.25-3.25 3.25Zm0-5c-.96 0-1.75.79-1.75 1.75s.79 1.75 1.75 1.75 1.75-.79 1.75-1.75-.79-1.75-1.75-1.75Zm6.5 5c-.41 0-.75-.34-.75-.75v-5c0-.41.34-.75.75-.75s.75.34.75.75v5c0 .41-.34.75-.75.75Zm-10 3.44c-.41 0-.75-.34-.75-.75v-1.28c0-.22-.18-.41-.41-.41H2c-.41 0-.75-.34-.75-.75s.34-.75.75-.75h5.34c1.05 0 1.91.86 1.91 1.91v1.28c0 .41-.34.75-.75.75Z" fill="#292D32"/>
  <path d="M3.22 17.47c-.19 0-.38-.07-.53-.22l-1.22-1.22a.755.755 0 0 1 0-1.06l1.22-1.22c.29-.29.77-.29 1.06 0 .29.29.29.77 0 1.06l-.69.69.69.69c.29.29.29.77 0 1.06-.15.15-.34.22-.53.22Zm5.28 4.06H3.16c-1.05 0-1.91-.86-1.91-1.91v-1.28c0-.41.34-.75.75-.75s.75.34.75.75v1.28c0 .22.18.41.41.41H8.5c.41 0 .75.34.75.75s-.34.75-.75.75Z" fill="#292D32"/>
  <path d="M7.279 22.75c-.19 0-.38-.07-.53-.22a.755.755 0 0 1 0-1.06l.69-.69-.69-.69a.754.754 0 0 1 0-1.06c.29-.29.77-.29 1.06 0l1.22 1.22c.29.29.29.77 0 1.06l-1.22 1.22c-.14.15-.34.22-.53.22Z" fill="#292D32"/>
</svg>
